resources/js/Projects/EF28/Components/Icons/ArrowUTurn.svg

<?xml version="1.0" encoding="UTF-8" standalone="no"?>
<!-- Created with Inkscape (http://www.inkscape.org/) -->

<svg
   viewBox="0 0 512 512"
   version="1.1"
   id="svg136"
   xml:space="preserve"
   xmlns="http://www.w3.org/2000/svg"
   xmlns:svg="http://www.w3.org/2000/svg"><defs
     id="defs133" /><g
     id="layer1" class="svgIconFill"><path
       id="path489"
       style="fill-opacity:1;stroke:none;stroke-width:64;stroke-miterlimit:10;paint-order:markers fill stroke"
       d="M -256 0 C -114.61566 0 0 -114.61566 0 -256 C 0 -397.38434 -114.61566 -512 -256 -512 C -397.38434 -512 -512 -397.38434 -512 -256 C -512 -114.61566 -397.38434 0 -256 0 z M -249.24023 -70.251953 L -353.91602 -70.253906 C -403.22567 -70.253906 -443.23242 -110.26064 -443.23242 -159.57031 L -443.23242 -320.53125 C -443.23242 -336.99881 -429.92657 -350.30273 -413.45898 -350.30273 C -396.9915 -350.30273 -383.6875 -336.99881 -383.6875 -320.53125 L -383.6875 -159.57031 C -383.6875 -143.10275 -370.38358 -129.79883 -353.91602 -129.79883 L -249.24023 -129.79688 C -232.77267 -129.79688 -219.46875 -143.1008 -219.46875 -159.56836 L -219.46875 -345.36914 L -287.66602 -277.07812 C -299.29565 -265.44849 -318.18286 -265.44849 -329.8125 -277.07812 C -341.44214 -288.70776 -341.44214 -307.59692 -329.8125 -319.22656 L -210.72461 -438.31445 C -204.9098 -444.12925 -197.28138 -447.03517 -189.65234 -447.03516 C -182.0233 -447.03516 -174.39294 -444.12925 -168.57812 -438.31445 L -49.490234 -319.22656 C -37.860596 -307.59692 -37.860596 -288.70971 -49.490234 -277.08008 C -61.119853 -265.45044 -80.007087 -265.45044 -91.636719 -277.08008 L -159.92578 -345.36914 L -159.92578 -159.56836 C -159.92578 -110.2587 -199.93058 -70.251953 -249.24023 -70.251953 z "
       transform="scale(-1)" /><path
       d="m 323.01334,501.89241 c 0,10.08393 8.18815,18.27208 18.27207,18.27208 l 129.07424,-10e-6 c 10.08398,0 18.27213,-8.18817 18.27206,-18.27207 7e-5,-10.08394 -8.18808,-18.27208 -18.27206,-18.27207 l -85.06798,0.0403 123.74994,-123.74997 c 7.13942,-7.13939 7.13942,-18.67541 0,-25.81483 -7.13942,-7.13942 -18.67545,-7.13941 -25.81481,-1e-5 l -123.70964,123.70965 -0.0403,-84.98735 c -3e-5,-10.0839 -8.18818,-18.27204 -18.27207,-18.27208 -10.08394,2e-5 -18.27209,8.18816 -18.27209,18.27209 l -1e-5,129.07426 z"
       id="path5705"
       style="display:none;stroke-width:0.570433" /></g></svg>

<svg xmlns="http://www.w3.org/2000/svg" xml:space="preserve" viewBox="0 0 512 512"><path d="M-256 0C-114.616 0 0-114.616 0-256s-114.616-256-256-256-256 114.616-256 256S-397.384 0-256 0m6.76-70.252-104.676-.002c-49.31 0-89.316-40.007-89.316-89.316v-160.961c0-16.468 13.305-29.772 29.773-29.772s29.772 13.304 29.772 29.772v160.96c0 16.468 13.303 29.772 29.771 29.772l104.676.002c16.467 0 29.771-13.304 29.771-29.771V-345.37l-68.197 68.29c-11.63 11.63-30.517 11.63-42.146 0-11.63-11.629-11.63-30.518 0-42.148l119.087-119.087c5.815-5.815 13.444-8.721 21.073-8.721s15.26 2.906 21.074 8.72l119.088 119.09c11.63 11.63 11.63 30.517 0 42.147s-30.517 11.63-42.147 0l-68.289-68.29v185.802c0 49.31-40.005 89.316-89.314 89.316" class="svgIconFill" style="fill-opacity:1;stroke:none;stroke-width:64;stroke-miterlimit:10;paint-order:markers fill stroke" transform="scale(-1)"/></svg>
